images/heart.svg

<svg width="24" height="21" viewBox="0 0 24 21" fill="none" xmlns="http://www.w3.org/2000/svg">
<path d="M22.0718 2.95445C19.4616 0.344964 15.2154 0.344964 12.6059 2.95445L11.9998 3.5602L11.394 2.95445C8.78455 0.344611 4.53796 0.344611 1.92847 2.95445C-0.628032 5.51095 -0.644633 9.56328 1.88997 12.3808C4.2017 14.9497 11.0196 20.4996 11.3089 20.7345C11.5053 20.8941 11.7416 20.9718 11.9765 20.9718C11.9842 20.9718 11.992 20.9718 11.9994 20.9715C12.2424 20.9828 12.4872 20.8994 12.6899 20.7345C12.9792 20.4996 19.7979 14.9497 22.1103 12.3804C24.6445 9.56328 24.6279 5.51095 22.0718 2.95445ZM20.535 10.963C18.7326 12.9654 13.7782 17.095 11.9994 18.5605C10.2207 17.0954 5.26732 12.9661 3.46527 10.9634C1.69712 8.99815 1.68052 6.19935 3.42677 4.4531C4.31861 3.56161 5.48984 3.11551 6.66107 3.11551C7.8323 3.11551 9.00354 3.56126 9.89538 4.4531L11.2277 5.78539C11.3863 5.94398 11.5862 6.03864 11.796 6.07184C12.1365 6.14496 12.5059 6.04994 12.7708 5.78574L14.1038 4.4531C15.8879 2.66976 18.7898 2.67012 20.5728 4.4531C22.319 6.19935 22.3024 8.99815 20.535 10.963Z" fill="white"/>
</svg>

<svg width="24" height="21" fill="none" xmlns="http://www.w3.org/2000/svg"><path d="M22.072 2.954a6.701 6.701 0 00-9.466 0L12 3.56l-.606-.606a6.7 6.7 0 00-9.466 0c-2.556 2.557-2.573 6.61-.038 9.427 2.312 2.569 9.13 8.119 9.419 8.354.196.16.433.237.668.237h.022c.243.01.488-.073.69-.238.29-.234 7.109-5.784 9.421-8.354 2.535-2.817 2.518-6.87-.038-9.426zm-1.537 8.009c-1.802 2.002-6.757 6.132-8.536 7.598-1.778-1.466-6.732-5.595-8.534-7.598-1.768-1.965-1.784-4.764-.038-6.51A4.561 4.561 0 016.66 3.116a4.56 4.56 0 013.234 1.337l1.333 1.332c.158.159.358.254.568.287.34.073.71-.022.975-.286l1.333-1.333a4.58 4.58 0 016.469 0c1.746 1.746 1.73 4.545-.038 6.51z" fill="#fff"/></svg>
